X: 2
T: Scottish #2
O: Tradizionale
S: Handout at 2014 NEFFA
Z: 2015 John Chambers <jc:trillian.mit.edu>
M: 2/4
L: 1/8
K: C
|:\
"C"e2 eg | "F"f4 |\
"C"ec eg | "G"d4 |\
"C"ec eg | "F"fe df |\
[1 "C"ed ce | "G"d4 :|\
[2 "C"ec "G"dB | "C"c2 B2 ||
|:\
"Am"A2 AB | "F"c2 A2 |\
"G"GB cd | "C"e4 |\
"C"ec eg | "F"fe df |\
[1 "C"ed ce | "G"dc Bc :|\
[2 "C"ec "G"dB | "C"c4 |]
